d1 $s "bd*4 cp" #gain "0.9" #delay "5" -- gain and delay

d1 $s "bd*4" #gain "0.9 0.6 1 2" -- gain pattern
d1 $s "bd*4 sn*4" #gain "[[1 0.8]*2 [0.5 0.7]]/2"
d1 $ sound "bd*4" # gain (every 3 (rev) $ "1 0.8 0.5 0.7")

d1 $gain "1 0.8 0.5 0.7" #s "bd" -- same thing

hush